X:4547
L:1/8
Q:1/4=100
M:6/8
K:Bb
 F | FdB Gec | BAf d2 F | FdB Gec | AFA"^repeat added""_qu. in ms" B2 :: f | fgf fbf | fed edB | 
 AG=B cde | B3 A2 F | FdB Gec | BAg d2 F | FdB Gec | AFA B2 :|

